icons/mail-branch.svg

<svg xmlns="http://www.w3.org/2000/svg" viewBox="0 0 24 24" fill="currentColor">
  <path d="M4.94995 6.25c0-1.28579.96421-2.25 2.25-2.25h9.39995c1.2858 0 2.25.96421 2.25 2.25v6c0 .0147.0005.0294.0013.044.0722 1.2271-.9394 2.206-2.1512 2.206H7.19995c-1.28579 0-2.25-.9642-2.25-2.25v-6ZM16.7 16h-3.95v2.5h3.628c.3089-.8739 1.1423-1.5 2.122-1.5 1.2426 0 2.25 1.0074 2.25 2.25s-1.0074 2.25-2.25 2.25c-.9797 0-1.8131-.6261-2.122-1.5H7.62197c-.30888.8739-1.14231 1.5-2.12197 1.5-1.24264 0-2.25-1.0074-2.25-2.25S4.25736 17 5.5 17c.97966 0 1.81309.6261 2.12197 1.5H11.25V16H7.19995c-2.11421 0-3.75-1.6358-3.75-3.75v-6c0-2.11421 1.63579-3.75 3.75-3.75h9.39995c2.1143 0 3.75 1.63579 3.75 3.75v5.9792C20.4637 14.3904 18.681 16 16.7 16Zm1.05 3.25c0 .4142.3358.75.75.75s.75-.3358.75-.75-.3358-.75-.75-.75-.75.3358-.75.75ZM5.5 18.5c.41421 0 .75.3358.75.75s-.33579.75-.75.75-.75-.3358-.75-.75.33579-.75.75-.75ZM7.13538 5.97925c-.37048-.18525-.82099-.03508-1.00623.33541-.18524.37048-.03508.82098.33541 1.00623l4.00004 2c.0131.00657.0264.01275.0399.01854.8887.38085 1.9022.38085 2.7909 0 .0135-.00579.0268-.01197.04-.01854l4-2c.3705-.18525.5206-.63575.3354-1.00623-.1853-.37049-.6358-.52066-1.0062-.33541l-3.9788 1.98936c-.5006.20861-1.071.20861-1.5717 0L7.13538 5.97925Z"/>
</svg>

<svg width="24" height="24" viewBox="0 0 24 24" fill="none" xmlns="http://www.w3.org/2000/svg">
<path fill-rule="evenodd" clip-rule="evenodd" d="M4.94995 6.25C4.94995 4.96421 5.91416 4 7.19995 4H16.5999C17.8857 4 18.8499 4.96421 18.8499 6.25V12.25C18.8499 12.2647 18.8504 12.2794 18.8512 12.294C18.9234 13.5211 17.9118 14.5 16.7 14.5H12H7.19995C5.91416 14.5 4.94995 13.5358 4.94995 12.25V6.25ZM16.7 16H12.75V18.5H16.378C16.6869 17.6261 17.5203 17 18.5 17C19.7426 17 20.75 18.0074 20.75 19.25C20.75 20.4926 19.7426 21.5 18.5 21.5C17.5203 21.5 16.6869 20.8739 16.378 20H12H7.62197C7.31309 20.8739 6.47966 21.5 5.5 21.5C4.25736 21.5 3.25 20.4926 3.25 19.25C3.25 18.0074 4.25736 17 5.5 17C6.47966 17 7.31309 17.6261 7.62197 18.5H11.25V16H7.19995C5.08574 16 3.44995 14.3642 3.44995 12.25V6.25C3.44995 4.13579 5.08574 2.5 7.19995 2.5H16.5999C18.7142 2.5 20.3499 4.13579 20.3499 6.25V12.2292C20.4637 14.3904 18.681 16 16.7 16ZM17.75 19.25C17.75 19.6642 18.0858 20 18.5 20C18.9142 20 19.25 19.6642 19.25 19.25C19.25 18.8358 18.9142 18.5 18.5 18.5C18.0858 18.5 17.75 18.8358 17.75 19.25ZM5.5 18.5C5.91421 18.5 6.25 18.8358 6.25 19.25C6.25 19.6642 5.91421 20 5.5 20C5.08579 20 4.75 19.6642 4.75 19.25C4.75 18.8358 5.08579 18.5 5.5 18.5ZM7.13538 5.97925C6.7649 5.794 6.31439 5.94417 6.12915 6.31466C5.94391 6.68514 6.09407 7.13564 6.46456 7.32089L10.4646 9.32089C10.4777 9.32746 10.491 9.33364 10.5045 9.33943C11.3932 9.72028 12.4067 9.72028 13.2954 9.33943C13.3089 9.33364 13.3222 9.32746 13.3354 9.32089L17.3354 7.32089C17.7059 7.13564 17.856 6.68514 17.6708 6.31466C17.4855 5.94417 17.035 5.794 16.6646 5.97925L12.6858 7.96861C12.1852 8.17722 11.6148 8.17722 11.1141 7.96861L7.13538 5.97925Z" fill="black"/>
</svg>
